usr/share/icons/biglinux-icons-material/24/actions/gnumeric-column-size.svg

<svg xmlns="http://www.w3.org/2000/svg" viewBox="0 0 24 24"><path d="M10 4v7H8V9l-4 3 4 3v-2h2v7h4v-7h2v2l4-3-4-3v2h-2V4h-4zm1 1h2v2h-2V5zm0 3h2v2h-2V8zm0 3h2v2h-2v-2zm0 3h2v2h-2v-2zm0 3h2v2h-2v-2z" style="fill:currentColor;fill-opacity:1;stroke:none;color:#dedede"/></svg>

<svg xmlns="http://www.w3.org/2000/svg" viewBox="0 0 24 24">
  <defs id="defs3051">
    <style type="text/css" id="current-color-scheme">
      .ColorScheme-Text {
        color:#363636;
      }
      </style>
  </defs>
 <path style="fill:currentColor;fill-opacity:1;stroke:none" 
     d="M 10 4 L 10 5 L 10 11 L 9 11 L 8 11 L 8 9 L 4 12 L 8 15 L 8 13 L 9 13 L 10 13 L 10 19 L 10 20 L 11 20 L 13 20 L 14 20 L 14 19 L 14 13 L 15 13 L 16 13 L 16 15 L 20 12 L 16 9 L 16 11 L 15 11 L 14 11 L 14 4 L 13 4 L 11 4 L 10 4 z M 11 5 L 13 5 L 13 7 L 11 7 L 11 5 z M 11 8 L 13 8 L 13 10 L 11 10 L 11 8 z M 11 11 L 13 11 L 13 13 L 11 13 L 11 11 z M 11 14 L 13 14 L 13 16 L 11 16 L 11 14 z M 11 17 L 13 17 L 13 19 L 11 19 L 11 17 z "
     class="ColorScheme-Text"
     />
</svg>
